X:1
T:Title
%%score { ( 1 3 ) | 2 }
L:1/8
M:6/8
K:Eb
V:1 treble nm="Grand Piano"
V:3 treble 
V:2 bass 
V:1
 z3 z2[Q:1/4=90] E | G>GG GFE | [GB]>[GB][Ac] [GB]2 G | B3 BAG |[M:5/8] [DF]-[DF]- [DF]3 | %5
[M:1/8] E |[M:3/4] G>G GG FE | [GB]>[GB] [Ac] [GB]2 G | B3 [DB] .[DA]>A, |[M:5/8] E-E- E3 | %10
[M:1/8] [GB] |[M:3/4] [Ge]3 [B,EB] [B,DA][B,EG] | DD E F2 G | F3 d dc | [DB]4- [DB]B | %15
 [Ge]>[Ge] [Ge][Ge] [GB][GB] | %16
 [Bd]>c cc Ac[Q:1/4=87][Q:1/4=84][Q:1/4=82][Q:1/4=79][Q:1/4=76][Q:1/4=73][Q:1/4=70] | %17
 B3 [DA] [DG][DF] |[M:5/8] E-E- E3 |] %19
V:2
 z3 z2 [E,G,] | [E,B,E]>[E,B,E][E,B,E] [E,B,E][E,A,E][E,G,] | [E,E]>[E,E][E,E] [E,E]2 [E,B,E] | %3
 [G,B,E]3 [G,B,E][F,B,D][E,B,E] |[M:5/8] [B,,B,]-[B,,B,]- [B,,B,]3 |[M:1/8] [E,G,] | %6
[M:3/4] [E,B,E]>[E,B,E] [E,B,E][E,B,E] [E,A,E][E,G,] | [E,E]>[E,E] [E,E] [E,E]2 [E,B,E] | %8
 [B,D]3 [B,,B,] [B,,B,].[B,,B,] |[M:5/8] [E,G,]-[E,G,]- [E,G,]3 |[M:1/8] [E,B,] | %11
[M:3/4] [E,B,]3 G, F,E, | B,,B,, C, D,2 [E,B,E] | [F,B,D]3 [F,B,F] [F,B,F][F,=A,E] | %14
 [B,,B,]4- [B,,B,][B,A] | [E,B,]>[E,B,] [E,B,][E,B,] [E,E][E,E] | %16
 [A,E]>[A,EA] [A,EA][A,EA] [A,CE][A,EA] | [B,EG]3[K:bass] [B,,B,] [B,,B,][B,,A,] | %18
[M:5/8] [E,G,]-[E,G,]- [E,G,]3 |] %19
V:3
 x6 | x6 | x6 | x6 |[M:5/8] x5 |[M:1/8] x |[M:3/4] x6 | x6 | z2 z2 z [DF] |[M:5/8] x5 |[M:1/8] x | %11
[M:3/4] x6 | [B,B]6 | x6 | x6 | x6 | x6 | x6 |[M:5/8] x5 |] %19

